dist/img/about/Frame-3.svg

<svg width="76" height="76" viewBox="0 0 76 76" fill="none" xmlns="http://www.w3.org/2000/svg">
<g clip-path="url(#clip0_700_14416)">
<path d="M22.0577 29.7873C23.4553 29.2175 24.9501 28.9244 26.4598 28.9244C26.9821 28.9244 27.4058 28.5012 27.4058 27.9783C27.4058 27.456 26.9821 27.0322 26.4598 27.0322C18.9578 27.0322 12.8755 33.1139 12.8755 40.6165C12.8755 48.1185 18.9578 54.2002 26.4598 54.2002C26.708 54.2057 26.9482 54.1109 27.1262 53.9372C27.3042 53.7641 27.4046 53.5264 27.4058 53.2775C27.4052 53.0281 27.3054 52.7885 27.1274 52.6129C26.95 52.4374 26.7092 52.3401 26.4598 52.3432C20.8567 52.3462 16.0377 48.3784 14.9641 42.8794C13.8912 37.3804 16.8649 31.8919 22.0577 29.7879V29.7873Z" fill="#087BA8"/>
<path d="M0.769429 45.6597L4.17489 46.8127C4.75695 48.8545 5.60939 50.8095 6.71005 52.6246L5.22628 55.9359C5.06368 56.298 5.14498 56.723 5.42892 56.9996L10.7555 62.1968C11.0425 62.477 11.4749 62.5454 11.8352 62.3674L15.0959 60.7567C16.9363 61.8229 18.9251 62.6076 20.9971 63.0855L22.261 66.4984C22.3977 66.8717 22.75 67.123 23.1479 67.1291H23.1633L26.4746 67.0564C26.995 67.0404 27.4058 66.6093 27.3966 66.0888C27.388 65.5684 26.9624 65.152 26.4419 65.1532L23.7996 65.1969L22.5893 61.943C22.4753 61.6369 22.2123 61.4115 21.8933 61.3456C19.6778 60.8916 17.5584 60.0552 15.6299 58.8745C15.3527 58.7051 15.0084 58.6891 14.7171 58.8332L11.5962 60.3749L7.22312 56.1071L8.64222 52.94C8.77218 52.6499 8.74754 52.3142 8.57693 52.0457C7.35801 50.1295 6.44459 48.036 5.86993 45.839C5.78924 45.531 5.5595 45.2846 5.25769 45.1824L2.00683 44.0817L1.90335 37.9816L5.15607 36.7719C5.46218 36.6586 5.68761 36.3949 5.75352 36.0759C6.20807 33.8598 7.04388 31.7398 8.22462 29.8107C8.394 29.5335 8.4094 29.1892 8.26527 28.8979L6.7236 25.7764L10.992 21.4026L14.1591 22.8217C14.4492 22.9517 14.7855 22.9277 15.0534 22.7571C16.9696 21.5382 19.0637 20.6247 21.2601 20.0495C21.5681 19.9694 21.8151 19.739 21.9173 19.4378L23.018 16.187L26.4758 16.1291C26.9987 16.1205 27.4151 15.6893 27.4065 15.167C27.3978 14.6447 26.9673 14.2283 26.4444 14.2369L22.3195 14.3072C21.9198 14.3139 21.5675 14.5708 21.4393 14.9496L20.2857 18.3557C18.2439 18.9371 16.2896 19.7895 14.4738 20.8902L11.1626 19.4064C10.801 19.2444 10.3761 19.3251 10.0989 19.6091L4.9023 24.9344C4.62144 25.2214 4.55307 25.6544 4.73046 26.0147L6.34173 29.2754C5.27617 31.1164 4.49148 33.1059 4.0129 35.1785L0.616679 36.4405C0.240348 36.5803 -0.00663925 36.9425 0.000135966 37.3435L0.126401 44.7802C0.133176 45.1793 0.390634 45.5316 0.769429 45.6597Z" fill="#087BA8"/>
<path d="M27.6035 9.25916C27.6029 8.84792 27.6844 8.4407 27.8432 8.06135C28.002 7.68201 28.2349 7.33816 28.5282 7.04997C28.8227 6.75979 29.1717 6.53086 29.5551 6.37641C29.9386 6.22196 30.3488 6.14505 30.7622 6.15014H26.3091C25.8946 6.14816 25.4839 6.2282 25.1004 6.38564C24.717 6.54308 24.3686 6.77481 24.0751 7.06748C23.7819 7.35296 23.5491 7.69436 23.3902 8.07145C23.2314 8.44855 23.1498 8.85369 23.1503 9.26287C23.151 9.67576 23.2334 10.0844 23.3929 10.4653C23.5523 10.8461 23.7856 11.1917 24.0793 11.4819C24.3729 11.7721 24.7212 12.0013 25.1039 12.1562C25.4866 12.3111 25.8962 12.3887 26.3091 12.3845H26.4397V37.4705H26.3024C25.8894 37.4652 25.4795 37.5422 25.0966 37.6969C24.7137 37.8516 24.3653 38.0809 24.0718 38.3715C23.7787 38.6588 23.546 39.0018 23.3875 39.3803C23.2289 39.7589 23.1477 40.1653 23.1486 40.5758C23.1494 40.9891 23.232 41.3982 23.3915 41.7795C23.551 42.1608 23.7843 42.5068 24.0781 42.7976C24.3718 43.0884 24.7201 43.3183 25.103 43.474C25.4859 43.6297 25.8958 43.7081 26.3091 43.7048H26.4397V68.6423H26.3091C25.4627 68.6423 24.6509 68.9786 24.0524 69.5771C23.4539 70.1756 23.1177 70.9873 23.1177 71.8337C23.1177 72.6801 23.4539 73.4919 24.0524 74.0904C24.6509 74.6889 25.4627 75.0251 26.3091 75.0251H30.7622C30.3473 75.025 29.9365 74.9432 29.5532 74.7844C29.1699 74.6255 28.8216 74.3927 28.5283 74.0992C28.235 73.8058 28.0024 73.4574 27.8437 73.074C27.685 72.6907 27.6034 72.2798 27.6035 71.8649C27.6025 71.0175 27.9347 70.2038 28.5282 69.599C29.1166 68.9966 29.9202 68.6525 30.7622 68.6423H30.8928V12.3845H30.7622C30.3491 12.3883 29.9394 12.3103 29.5566 12.155C29.1739 11.9997 28.8256 11.7702 28.532 11.4796C28.2384 11.1891 28.0051 10.8433 27.8458 10.4622C27.6864 10.0811 27.604 9.67224 27.6035 9.25916Z" fill="#D4E1F4"/>
<path d="M46.9503 34.0737C46.8718 33.9397 46.7595 33.8285 46.6247 33.7512C46.4899 33.674 46.3372 33.6333 46.1819 33.6333C46.0265 33.6333 45.8738 33.674 45.739 33.7512C45.6042 33.8285 45.4919 33.9397 45.4134 34.0737L41.8102 40.2247C41.3593 40.9944 41.1195 41.8695 41.1153 42.7616C41.111 43.6537 41.3424 44.5311 41.786 45.305C42.2296 46.079 42.8696 46.7222 43.6415 47.1694C44.4133 47.6167 45.2896 47.8522 46.1817 47.8522C47.0738 47.8522 47.9501 47.6167 48.7219 47.1694C49.4938 46.7222 50.1339 46.079 50.5774 45.305C51.021 44.5311 51.2524 43.6537 51.2481 42.7616C51.2439 41.8695 51.0041 40.9944 50.5532 40.2247L46.9503 34.0737ZM48.5049 45.1086C47.9401 45.6736 47.1887 46.0134 46.3915 46.0645C45.5942 46.1156 44.8056 45.8744 44.1733 45.3861C43.541 44.8978 43.1083 44.1958 42.9562 43.4116C42.804 42.6273 42.9428 41.8144 43.3467 41.1251L46.1819 36.286L49.017 41.1251C49.3841 41.7523 49.5329 42.4834 49.4403 43.2042C49.3476 43.9249 49.0187 44.5947 48.5049 45.1086Z" fill="#00415D"/>
<path d="M66.8294 67.8903V44.5547C67.7517 44.375 68.5829 43.8802 69.1804 43.1549C69.778 42.4297 70.1047 41.5193 70.1047 40.5796C70.1047 39.6399 69.778 38.7295 69.1804 38.0043C68.5829 37.2791 67.7517 36.7842 66.8294 36.6045V13.254C67.8167 13.0627 68.6972 12.5102 69.299 11.7045C69.9007 10.8987 70.1805 9.89759 70.0835 8.89661C69.9866 7.89564 69.52 6.96675 68.7749 6.2914C68.0297 5.61604 67.0596 5.24275 66.0539 5.24443H39.5762V2.88428C39.5758 2.49073 39.4193 2.11342 39.141 1.83514C38.8627 1.55686 38.4854 1.40033 38.0919 1.3999H29.8291C29.4355 1.40033 29.0582 1.55686 28.78 1.83514C28.5017 2.11342 28.3451 2.49073 28.3447 2.88428V5.24443H26.395C24.191 5.24443 22.3259 6.96913 22.2606 9.17194C22.2328 10.1319 22.5467 11.0705 23.1461 11.8207C23.7456 12.5709 24.5918 13.0841 25.5342 13.2688V36.6045C24.6119 36.7842 23.7807 37.2791 23.1832 38.0043C22.5856 38.7295 22.2588 39.6399 22.2588 40.5796C22.2588 41.5193 22.5856 42.4297 23.1832 43.1549C23.7807 43.8802 24.6119 44.375 25.5342 44.5547V67.8903C24.5459 68.0827 23.6646 68.6364 23.0624 69.4434C22.4602 70.2504 22.1803 71.2528 22.2771 72.255C22.3739 73.2572 22.8406 74.1875 23.5861 74.8643C24.3317 75.541 25.3026 75.9158 26.3095 75.9155H66.0539C67.0608 75.9157 68.0316 75.5408 68.777 74.864C69.5224 74.1871 69.989 73.2569 70.0858 72.2547C70.1825 71.2525 69.9025 70.2502 69.3003 69.4433C68.6981 68.6364 67.8177 68.0827 66.8294 67.8903ZM30.126 3.18115H37.795V5.24443H30.126V3.18115ZM24.04 40.5797C24.0406 39.9781 24.2798 39.4013 24.7052 38.9759C25.1306 38.5504 25.7074 38.3112 26.309 38.3107H36.1208V36.5294H27.316V13.3442H28.7449C28.9811 13.3442 29.2076 13.2504 29.3747 13.0834C29.5417 12.9163 29.6355 12.6898 29.6355 12.4536C29.6355 12.2174 29.5417 11.9909 29.3747 11.8238C29.2076 11.6568 28.9811 11.563 28.7449 11.563H26.3752C25.785 11.5693 25.2146 11.3496 24.781 10.949C24.3474 10.5484 24.0835 9.99719 24.0431 9.40825C24.0281 9.10116 24.0755 8.79421 24.1825 8.50598C24.2896 8.21776 24.4541 7.95428 24.666 7.73151C24.8779 7.50874 25.1328 7.33131 25.4153 7.20998C25.6978 7.08865 26.002 7.02596 26.3095 7.02568H65.9882C66.5785 7.01934 67.1488 7.23898 67.5824 7.63959C68.016 8.0402 68.28 8.59145 68.3203 9.1804C68.3354 9.48754 68.2881 9.79456 68.1811 10.0829C68.074 10.3711 67.9096 10.6347 67.6977 10.8575C67.4858 11.0804 67.2308 11.2579 66.9482 11.3792C66.6657 11.5006 66.3614 11.5633 66.0539 11.5636H36.4637C36.2274 11.5636 36.0009 11.6574 35.8339 11.8244C35.6669 11.9914 35.573 12.218 35.573 12.4542C35.573 12.6904 35.6669 12.9169 35.8339 13.084C36.0009 13.251 36.2274 13.3448 36.4637 13.3448H65.0481V36.5308H56.2424V38.312H66.0541C66.3536 38.3096 66.6506 38.3665 66.928 38.4794C67.2054 38.5924 67.4577 38.7591 67.6704 38.97C67.883 39.181 68.0518 39.4319 68.167 39.7084C68.2821 39.9849 68.3414 40.2814 68.3414 40.5809C68.3414 40.8805 68.2821 41.177 68.167 41.4535C68.0518 41.73 67.883 41.9809 67.6704 42.1919C67.4577 42.4028 67.2054 42.5695 66.928 42.6825C66.6506 42.7954 66.3536 42.8523 66.0541 42.8499H56.3424V44.6311H65.0481V67.8171H27.316V44.6311H36.0201V42.8499H26.3095C25.7077 42.8493 25.1307 42.6099 24.7052 42.1843C24.2798 41.7586 24.0403 41.1815 24.04 40.5797ZM66.0539 74.1343H26.3095C26.01 74.1367 25.713 74.0798 25.4356 73.9669C25.1581 73.8539 24.9058 73.6872 24.6932 73.4762C24.4806 73.2653 24.3118 73.0144 24.1966 72.7379C24.0814 72.4614 24.0221 72.1648 24.0221 71.8653C24.0221 71.5658 24.0814 71.2693 24.1966 70.9928C24.3118 70.7163 24.4806 70.4654 24.6932 70.2544C24.9058 70.0435 25.1581 69.8768 25.4356 69.7638C25.713 69.6509 26.01 69.594 26.3095 69.5964H66.0539C66.3534 69.594 66.6505 69.6509 66.9279 69.7638C67.2053 69.8768 67.4576 70.0435 67.6702 70.2544C67.8829 70.4654 68.0516 70.7163 68.1668 70.9928C68.282 71.2693 68.3413 71.5658 68.3413 71.8653C68.3413 72.1648 68.282 72.4614 68.1668 72.7379C68.0516 73.0144 67.8829 73.2653 67.6702 73.4762C67.4576 73.6872 67.2053 73.8539 66.9279 73.9669C66.6505 74.0798 66.3534 74.1367 66.0539 74.1343Z" fill="#00415D"/>
<path d="M31.2671 15.5571C31.0309 15.5571 30.8043 15.651 30.6373 15.818C30.4703 15.985 30.3765 16.2115 30.3765 16.4478V16.8435C30.3765 17.0797 30.4703 17.3062 30.6373 17.4733C30.8043 17.6403 31.0309 17.7341 31.2671 17.7341C31.5033 17.7341 31.7298 17.6403 31.8969 17.4733C32.0639 17.3062 32.1577 17.0797 32.1577 16.8435V16.4478C32.1577 16.2115 32.0639 15.985 31.8969 15.818C31.7298 15.651 31.5033 15.5571 31.2671 15.5571Z" fill="#00415D"/>
<path d="M31.2671 18.8667C31.0309 18.8667 30.8043 18.9605 30.6373 19.1276C30.4703 19.2946 30.3765 19.5211 30.3765 19.7573V31.311C30.3765 31.5472 30.4703 31.7737 30.6373 31.9407C30.8043 32.1077 31.0309 32.2016 31.2671 32.2016C31.5033 32.2016 31.7298 32.1077 31.8969 31.9407C32.0639 31.7737 32.1577 31.5472 32.1577 31.311V19.7573C32.1577 19.5211 32.0639 19.2946 31.8969 19.1276C31.7298 18.9605 31.5033 18.8667 31.2671 18.8667Z" fill="#00415D"/>
<path d="M46.1819 29.2603C43.911 29.2603 41.691 29.9337 39.8027 31.1954C37.9145 32.4571 36.4428 34.2503 35.5737 36.3485C34.7047 38.4466 34.4773 40.7553 34.9204 42.9826C35.3634 45.21 36.457 47.2559 38.0628 48.8617C39.6687 50.4675 41.7146 51.5611 43.942 52.0041C46.1693 52.4471 48.478 52.2197 50.5761 51.3507C52.6742 50.4816 54.4675 49.0098 55.7292 47.1216C56.9908 45.2333 57.6642 43.0133 57.6642 40.7423C57.6607 37.6982 56.4498 34.7796 54.2972 32.6271C52.1447 30.4745 49.2261 29.2637 46.1819 29.2603ZM46.1819 50.4435C44.2633 50.4435 42.3877 49.8745 40.7924 48.8086C39.1971 47.7426 37.9536 46.2275 37.2194 44.4549C36.4852 42.6823 36.293 40.7317 36.6674 38.8499C37.0417 36.9681 37.9656 35.2396 39.3223 33.8829C40.679 32.5261 42.4076 31.6022 44.2894 31.2279C46.1712 30.8536 48.1217 31.0457 49.8944 31.7799C51.667 32.5142 53.1821 33.7576 54.248 35.3529C55.314 36.9482 55.8829 38.8238 55.8829 40.7425C55.88 43.3145 54.857 45.7803 53.0384 47.5989C51.2197 49.4176 48.7539 50.4406 46.1819 50.4435Z" fill="#00415D"/>
<circle cx="61" cy="15" r="14.5" fill="#F5F6F6"/>
<path d="M60.9934 3.64369e-06C58.5371 -0.00171415 56.1185 0.603978 53.9529 1.76315C51.7873 2.92232 49.9419 4.59901 48.5811 6.64392C46.949 9.09344 46.0787 11.9714 46.0801 14.9149C46.0843 18.869 47.6569 22.66 50.4527 25.4561C53.2485 28.2523 57.0393 29.8253 60.9934 29.83C61.2228 29.83 61.4549 29.8244 61.7031 29.8128C65.5928 29.6273 69.2557 27.928 71.9092 25.0779C74.5626 22.2278 75.9962 18.4529 75.9035 14.5599C75.8108 10.6669 74.1993 6.96455 71.4132 4.24392C68.6272 1.52328 64.8875 0.000158564 60.9934 3.64369e-06ZM61.6197 28.0335C61.3996 28.0437 61.1947 28.0483 60.9934 28.0483C59.0558 28.0473 57.1424 27.6177 55.3902 26.7904C53.6381 25.963 52.0906 24.7584 50.8587 23.2628C49.6268 21.7672 48.7409 20.0176 48.2646 18.1394C47.7883 16.2612 47.7332 14.3009 48.1034 12.399C48.4314 10.6954 49.0977 9.07497 50.0628 7.6334C51.3065 5.76647 53.0077 4.24921 55.0042 3.22626C57.0006 2.20331 59.2258 1.70877 61.4676 1.78978C63.7094 1.87079 65.8931 2.52466 67.8105 3.68904C69.728 4.85342 71.3152 6.48951 72.4209 8.44135C73.5266 10.3932 74.114 12.5957 74.127 14.8389C74.14 17.0822 73.5782 19.2913 72.4952 21.2559C71.4122 23.2204 69.8441 24.8748 67.9403 26.0613C66.0365 27.2479 63.8606 27.927 61.6199 28.0341L61.6197 28.0335Z" fill="#087BA8"/>
<path d="M61.0215 4.81396C58.9994 4.81396 57.0228 5.41357 55.3415 6.53696C53.6603 7.66035 52.3499 9.25706 51.5761 11.1252C50.8023 12.9933 50.5998 15.0489 50.9943 17.0321C51.3888 19.0153 52.3625 20.837 53.7923 22.2668C55.2221 23.6966 57.0438 24.6703 59.027 25.0648C61.0101 25.4593 63.0658 25.2568 64.9339 24.483C66.802 23.7092 68.3987 22.3988 69.5221 20.7175C70.6455 19.0363 71.2451 17.0596 71.2451 15.0376C71.2421 12.3271 70.1639 9.72842 68.2473 7.81178C66.3307 5.89514 63.732 4.81703 61.0215 4.81396ZM61.0215 23.48C59.3517 23.48 57.7195 22.9848 56.3312 22.0572C54.9428 21.1295 53.8607 19.811 53.2217 18.2684C52.5828 16.7257 52.4156 15.0282 52.7413 13.3906C53.0671 11.7529 53.8711 10.2486 55.0518 9.06793C56.2325 7.88724 57.7368 7.08318 59.3745 6.75743C61.0121 6.43168 62.7096 6.59887 64.2522 7.23785C65.7949 7.87684 67.1134 8.95892 68.0411 10.3473C68.9687 11.7356 69.4639 13.3679 69.4639 15.0376C69.4612 17.2758 68.5709 19.4215 66.9882 21.0041C65.4055 22.5867 63.2597 23.4769 61.0215 23.4794V23.48Z" fill="#087BA8"/>
<path d="M64.2452 11.9727L59.8937 16.2211L57.7552 14.1334C57.6717 14.0508 57.5727 13.9855 57.4638 13.9414C57.355 13.8972 57.2385 13.875 57.1211 13.876C57.0037 13.8771 56.8876 13.9013 56.7796 13.9474C56.6715 13.9934 56.5737 14.0604 56.4917 14.1444C56.4096 14.2285 56.345 14.3279 56.3015 14.437C56.2581 14.5461 56.2366 14.6627 56.2384 14.7801C56.2402 14.8975 56.2652 15.0135 56.3119 15.1212C56.3587 15.2289 56.4263 15.3263 56.5108 15.4078L59.2718 18.1032C59.4381 18.2656 59.6614 18.3565 59.8939 18.3565C60.1264 18.3565 60.3497 18.2656 60.5161 18.1032L65.4898 13.2472C65.5744 13.1657 65.642 13.0683 65.6887 12.9605C65.7355 12.8528 65.7605 12.7369 65.7622 12.6195C65.764 12.502 65.7425 12.3854 65.6991 12.2763C65.6556 12.1672 65.591 12.0678 65.509 11.9838C65.4269 11.8997 65.3291 11.8328 65.221 11.7867C65.113 11.7406 64.9969 11.7164 64.8795 11.7154C64.7621 11.7143 64.6456 11.7365 64.5368 11.7807C64.428 11.8249 64.329 11.8901 64.2454 11.9727H64.2452Z" fill="#087BA8"/>
</g>
<defs>
<clipPath id="clip0_700_14416">
<rect width="76" height="76" fill="white"/>
</clipPath>
</defs>
</svg>

<svg width="76" height="76" viewBox="0 0 76 76" fill="none" xmlns="http://www.w3.org/2000/svg"><g clip-path="url(#clip0_700_14416)"><path d="M22.058 29.787a11.66 11.66 0 014.402-.863.946.946 0 100-1.892c-7.502 0-13.585 6.082-13.585 13.585 0 7.502 6.083 13.583 13.585 13.583a.925.925 0 00.667-1.587.934.934 0 00-.667-.27 11.707 11.707 0 01-4.402-22.555z" fill="#087BA8"/><path d="M.77 45.66l3.405 1.153a23.785 23.785 0 002.535 5.812l-1.484 3.31A.945.945 0 005.43 57l5.326 5.197c.287.28.72.348 1.08.17l3.26-1.61a21.338 21.338 0 005.902 2.329l1.264 3.412a.96.96 0 00.887.631h.015l3.312-.073a.951.951 0 00-.033-1.903l-2.642.044-1.21-3.254a.947.947 0 00-.697-.597 19.488 19.488 0 01-6.263-2.471.946.946 0 00-.913-.042l-3.12 1.542-4.374-4.268 1.42-3.167a.946.946 0 00-.066-.894 21.879 21.879 0 01-2.707-6.207.946.946 0 00-.612-.657l-3.251-1.1-.104-6.1 3.253-1.21a.946.946 0 00.598-.696 19.51 19.51 0 012.47-6.265.946.946 0 00.041-.913l-1.541-3.122 4.268-4.373 3.167 1.419c.29.13.627.106.894-.065a21.903 21.903 0 016.207-2.708.946.946 0 00.657-.611l1.101-3.251 3.458-.058a.947.947 0 00-.032-1.892l-4.124.07a.946.946 0 00-.88.643l-1.154 3.406a23.768 23.768 0 00-5.812 2.534l-3.311-1.484a.946.946 0 00-1.064.203l-5.197 5.325a.946.946 0 00-.172 1.08l1.612 3.261a21.39 21.39 0 00-2.33 5.904L.618 36.44a.946.946 0 00-.617.904l.126 7.436c.007.4.265.752.643.88z" fill="#087BA8"/><path d="M27.604 9.26a3.09 3.09 0 01.924-2.21 3.129 3.129 0 012.234-.9H26.31a3.143 3.143 0 00-2.234.917 3.059 3.059 0 00-.925 2.196 3.127 3.127 0 003.16 3.121h.13v25.087h-.138a3.112 3.112 0 00-2.23.9 3.077 3.077 0 00-.923 2.205 3.135 3.135 0 003.16 3.129h.13v24.937h-.13a3.192 3.192 0 000 6.383h4.453a3.16 3.16 0 01-3.159-3.16 3.23 3.23 0 01.925-2.266 3.177 3.177 0 012.234-.957h.13V12.385h-.13a3.13 3.13 0 01-3.159-3.126z" fill="#D4E1F4"/><path d="M46.95 34.074a.891.891 0 00-1.537 0l-3.603 6.15a5.066 5.066 0 108.743 0l-3.603-6.15zm1.555 11.035a3.286 3.286 0 01-5.158-3.984l2.835-4.839 2.835 4.84a3.287 3.287 0 01-.512 3.983z" fill="#00415D"/><path d="M66.83 67.89V44.555a4.05 4.05 0 000-7.95V13.254a4.042 4.042 0 00-.776-8.01H39.576v-2.36A1.486 1.486 0 0038.092 1.4h-8.263a1.486 1.486 0 00-1.484 1.484v2.36h-1.95c-2.204 0-4.07 1.725-4.134 3.928a4.055 4.055 0 003.273 4.097v23.336a4.05 4.05 0 000 7.95V67.89a4.05 4.05 0 00.776 8.025h39.744a4.05 4.05 0 00.775-8.025zM30.125 3.181h7.669v2.063h-7.669V3.181zM24.04 40.58a2.271 2.271 0 012.269-2.27h9.812v-1.78h-8.805V13.343h1.429a.89.89 0 000-1.781h-2.37a2.313 2.313 0 01-2.332-2.155 2.274 2.274 0 012.267-2.382h39.678A2.313 2.313 0 0168.32 9.18a2.273 2.273 0 01-2.266 2.384h-29.59a.89.89 0 100 1.78h28.584v23.187h-8.806v1.781h9.812a2.27 2.27 0 110 4.538h-9.712v1.781h8.706v23.186H27.316V44.631h8.704V42.85h-9.71a2.272 2.272 0 01-2.27-2.27zm42.014 33.554H26.309a2.27 2.27 0 110-4.538h39.745a2.27 2.27 0 011.616 3.88 2.269 2.269 0 01-1.616.658z" fill="#00415D"/><path d="M31.267 15.557a.89.89 0 00-.89.89v.396a.89.89 0 001.78 0v-.395a.89.89 0 00-.89-.89zm0 3.31a.89.89 0 00-.89.89v11.554a.89.89 0 101.78 0V19.757a.89.89 0 00-.89-.89zM46.182 29.26a11.482 11.482 0 1011.482 11.482A11.495 11.495 0 0046.182 29.26zm0 21.183a9.701 9.701 0 119.7-9.7 9.712 9.712 0 01-9.7 9.7z" fill="#00415D"/><circle cx="61" cy="15" r="14.5" fill="#F5F6F6"/><path d="M60.993 0a14.897 14.897 0 00-12.412 6.644 14.904 14.904 0 001.872 18.812 14.93 14.93 0 0011.25 4.357A14.915 14.915 0 0060.993 0zm.627 28.034a13.14 13.14 0 01-13.516-15.635 12.976 12.976 0 011.959-4.766A13.134 13.134 0 1161.62 28.034z" fill="#087BA8"/><path d="M61.022 4.814a10.224 10.224 0 1010.223 10.224A10.235 10.235 0 0061.021 4.814zm0 18.666a8.443 8.443 0 118.442-8.442 8.452 8.452 0 01-8.442 8.441v.001z" fill="#087BA8"/><path d="M64.245 11.973l-4.351 4.248-2.139-2.088a.889.889 0 00-1.454.304.891.891 0 00.21.97l2.76 2.696a.89.89 0 001.245 0l4.974-4.856a.888.888 0 00.019-1.263.89.89 0 00-1.264-.011z" fill="#087BA8"/></g><defs><clipPath id="clip0_700_14416"><path fill="#fff" d="M0 0h76v76H0z"/></clipPath></defs></svg>
